X:005
T: Castle Town Hunt
N: O'Farrell's Pocket Companion v.1 (Sky ed. p.14)
M: 6/8
R: jig
L: 1/8
Q: 320
K: D
B|ABd dfa| dfa B2A|ABd f/g/ad|ede d2 :|
e/f/|gbg faf| efe edB| gbg faf | edB A2f |
gbg faf | efe edB | ABd f/g/ad| ede d2 :|
B|ABd fdd| edd fdB| ABd f/g/ad| ede d2 :|
e/f/|g/a/bg f/g/af| efe edB| gb/g/b/g/ fa/f/a/f/|
edB A2f| g/a/bg f/g/af| efe edB| ABd f/g/ad| ede d2 :|
